X:1
T:Title
%%score 1 { ( 2 5 ) | ( 3 4 6 ) }
L:1/8
M:4/4
K:F
V:1 treble nm="Choir Aahs"
V:2 treble nm="Grand Piano"
V:5 treble 
V:3 bass 
V:4 bass 
V:6 bass 
V:1
 z8[Q:1/4=88] | z8 | z8 | z8 |[M:3/4] z6 |[M:1/4] C2 |[M:4/4] A3 A GFEF | B6 C2 | B3 B AG^FG | %9
[M:3/4] c6 |[M:1/4] B2 |[M:4/4] A3 A GFEF | %12
 B4- BDEF[Q:1/4=85][Q:1/4=83][Q:1/4=80][Q:1/4=77][Q:1/4=74][Q:1/4=72][Q:1/4=69] | A4- ACCC | %14
[M:3/4] F6 |] %15
V:2
 z8 | [CFA]3 [FA] [B,CG][CF][B,E][CF] | [CEB]6 z2 | [Be][Bd]c[EB] [FA]2 [B,CEG]2 | %4
[M:3/4] [F,A,CF]6 |[M:1/4] C2 |[M:4/4] [CFA]3 [FA] [B,CG][CF][B,CE][CF] | [CB]6 z2 | %8
 [CEB]3 B AG^FG |[M:3/4] c6 |[M:1/4] [FB][FB] |[M:4/4] [CFA]3 [FA] [B,CG][CF][B,E][C_EF] | %12
 [DFB]4- [DFB]DEF | [CFA][FA][FA][FA] [CFA]CC[B,C] |[M:3/4] F6 |] %15
V:3
 z4 z2 C2 | F,,C, z C z A,G,,A,, | G,,F,,E,,D,, C,,2[K:treble] Bc | GFED C2[K:bass] C,2 | %4
[M:3/4] F,,6 |[M:1/4] C,2 |[M:4/4] F,,C, z C z A,G,,A,, | G,,F,,E,,D,, z ECC | %8
 C,,G,, z[K:treble] [CE] [CE][B,E][A,_E][B,=E] |[M:3/4] C6[K:bass] |[M:1/4] DD | %11
[M:4/4] F,,C, z C z A,G,,A,, | B,,D,F,D, B,,B,C^C | z CCC C,C,B,,G,, |[M:3/4] z C =B,_B, A,2 |] %15
V:4
 x8 | z2 F,2 F,,2 z2 | x6[K:treble] x2 | x6[K:bass] x2 |[M:3/4] x6 |[M:1/4] x2 | %6
[M:4/4] z2 F,2 F,,2 z2 | z4 C,,2 z2 | z2 C,2[K:treble] z4 |[M:3/4] [A,F][K:bass]B, A,G, z C | %10
[M:1/4] x2 |[M:4/4] z2 F,2 F,,2 z2 | x8 | C,4 z4 |[M:3/4] F,,6 |] %15
V:5
 x8 | x8 | x8 | x8 |[M:3/4] x6 |[M:1/4] x2 |[M:4/4] x8 | EDGF .E2 z2 | x8 |[M:3/4] z G FB A[Ac] | %10
[M:1/4] x2 |[M:4/4] x8 | x8 | x8 |[M:3/4] [A,C]_E D^C =C2 |] %15
V:6
 x8 | x8 | x6[K:treble] x2 | x6[K:bass] x2 |[M:3/4] x6 |[M:1/4] x2 |[M:4/4] x8 | x8 | %8
 x3[K:treble] x5 |[M:3/4] z2[K:bass] z2 F,2 |[M:1/4] x2 |[M:4/4] x8 | x8 | x8 |[M:3/4] x6 |] %15

